X:1
T:Railroad Bill and the Kitten
M:2/2
L:1/8
K:D
 A2| B A2 A- A2 FF| ED DD-D DE D| FF FF ED E F-| F4 z2 z| B-| BA AA AF FF|\
 ED DB, DD ED| FF FF ED B, D-| D2 z2 z2||

